icon-svg/tado.svg

<svg xmlns="http://www.w3.org/2000/svg" fill="#44739e" viewBox="0 0 24 24"><path d="M17.815 10.129a2.24 2.24 0 0 0-.7-.045 2.4 2.4 0 0 0-1.278.474 3.171 3.171 0 0 0-.018 4.452 2.39 2.39 0 0 0 1.839.473c2.609-.325 2.706-4.852.157-5.354m.652 3.783a1.261 1.261 0 0 1-2.373-.07c-.451-.956-.229-2.771 1.038-2.952a1.313 1.313 0 0 1 1.358.833 2.657 2.657 0 0 1-.023 2.189m-9.444-3.619a1.847 1.847 0 0 0-1.1-.216H6.571v.788h1.366c.238 0 .464-.015.611.21s.072.632.072.893a7.07 7.07 0 0 0-1.594.051 1.985 1.985 0 0 0-.875.452 1.713 1.713 0 0 0 .788 2.879 1.867 1.867 0 0 0 1.278-.068.8.8 0 0 0 .386-.319h.017v.385h.946V11.88c0-.608.026-1.205-.543-1.587m-.429 3.636c-.129.716-1.17.9-1.69.513a.984.984 0 0 1-.28-1.055.86.86 0 0 1 .28-.4 1.086 1.086 0 0 1 .508-.218 7.06 7.06 0 0 1 1.188-.013 6.85 6.85 0 0 1-.006 1.173m11.988-5.421a1.34 1.34 0 0 0-.526.2 1.23 1.23 0 0 0-.344.338A1.273 1.273 0 0 0 20.967 11a1.24 1.24 0 0 0 .49-.191 1.268 1.268 0 0 0-.875-2.301m.665 2.051a.89.89 0 0 1-.35.125.945.945 0 0 1-.666-1.709.99.99 0 0 1 .421-.152.945.945 0 0 1 .595 1.736M14.61 8.5h-.946v2.032a2.524 2.524 0 0 0-1.611-.445 2.334 2.334 0 0 0-1.279.485 3.2 3.2 0 0 0-.174 4.251 2.347 2.347 0 0 0 3.011.254 2.518 2.518 0 0 0 .881-1.375 7.65 7.65 0 0 0 .118-2.067zm-1.11 5.2a1.28 1.28 0 0 1-1.447 1c-1.242-.172-1.4-1.914-1.037-2.855a1.4 1.4 0 0 1 1.037-.955 1.35 1.35 0 0 1 .42 0c1.205.216 1.339 1.88 1.027 2.81m-9.766.736c-.25-.236-.158-.684-.158-1v-2.571h2.68v-.788h-2.68V8.991L3.559 8.5l-.631.216-.252.1-.028.335v.929H2v.788h.63v2.8a1.535 1.535 0 0 0 .6 1.5 3.1 3.1 0 0 0 1.611.183v-.771c-.33-.003-.85.098-1.107-.144"/></svg>

<?xml version="1.0" encoding="UTF-8"?>
<svg width="24px" fill="#44739e" height="24px" viewBox="0 0 24 24" version="1.1" xmlns="http://www.w3.org/2000/svg" xmlns:xlink="http://www.w3.org/1999/xlink">
            <path d="m 17.815,10.129 a 2.235,2.235 0 0 0 -0.7,-0.045 2.4,2.4 0 0 0 -1.278,0.474 3.171,3.171 0 0 0 -0.018,4.452 2.391,2.391 0 0 0 1.839,0.473 c 2.609,-0.325 2.706,-4.852 0.157,-5.354 z m 0.652,3.783 a 1.261,1.261 0 0 1 -2.373,-0.07 c -0.451,-0.956 -0.229,-2.771 1.038,-2.952 a 1.313,1.313 0 0 1 1.358,0.833 2.657,2.657 0 0 1 -0.023,2.189 z M 9.023,10.293 a 1.847,1.847 0 0 0 -1.1,-0.216 H 6.571 v 0.788 h 1.366 c 0.238,0 0.464,-0.015 0.611,0.21 0.147,0.225 0.072,0.632 0.072,0.893 A 7.069,7.069 0 0 0 7.026,12.019 1.985,1.985 0 0 0 6.151,12.471 1.713,1.713 0 0 0 6.939,15.35 1.867,1.867 0 0 0 8.217,15.282 0.8,0.8 0 0 0 8.603,14.963 H 8.62 v 0.385 H 9.566 V 11.88 c 0,-0.608 0.026,-1.205 -0.543,-1.587 z m -0.429,3.636 c -0.129,0.716 -1.17,0.9 -1.69,0.513 a 0.984,0.984 0 0 1 -0.28,-1.055 0.861,0.861 0 0 1 0.28,-0.4 A 1.086,1.086 0 0 1 7.412,12.769 7.064,7.064 0 0 1 8.6,12.756 6.853,6.853 0 0 1 8.594,13.929 Z M 20.582,8.508 a 1.344,1.344 0 0 0 -0.526,0.2 1.23,1.23 0 0 0 -0.344,0.338 1.273,1.273 0 0 0 1.255,1.954 1.237,1.237 0 0 0 0.49,-0.191 1.268,1.268 0 0 0 -0.875,-2.301 z m 0.665,2.051 a 0.892,0.892 0 0 1 -0.35,0.125 0.945,0.945 0 0 1 -0.666,-1.709 0.99,0.99 0 0 1 0.421,-0.152 0.945,0.945 0 0 1 0.595,1.736 z M 14.61,8.5 h -0.946 v 2.032 a 2.524,2.524 0 0 0 -1.611,-0.445 2.334,2.334 0 0 0 -1.279,0.485 3.2,3.2 0 0 0 -0.174,4.251 2.347,2.347 0 0 0 3.011,0.254 2.518,2.518 0 0 0 0.881,-1.375 7.646,7.646 0 0 0 0.118,-2.067 z m -1.11,5.2 a 1.28,1.28 0 0 1 -1.447,1 c -1.242,-0.172 -1.4,-1.914 -1.037,-2.855 a 1.4,1.4 0 0 1 1.037,-0.955 1.345,1.345 0 0 1 0.42,0 c 1.205,0.216 1.339,1.88 1.027,2.81 z m -9.766,0.736 c -0.25,-0.236 -0.158,-0.684 -0.158,-1 v -2.571 h 2.68 V 10.077 H 3.576 V 8.991 L 3.559,8.5 2.928,8.716 2.676,8.816 2.648,9.151 V 10.08 H 2 v 0.788 h 0.63 v 2.8 a 1.535,1.535 0 0 0 0.6,1.5 3.1,3.1 0 0 0 1.611,0.183 V 14.58 c -0.33,-0.003 -0.85,0.098 -1.107,-0.144 z"/>

</svg>
